src/assets/icons/fi_empty.svg

<svg fill="none" height="194" viewBox="0 0 276 194" width="276" xmlns="http://www.w3.org/2000/svg"><path d="m224.986 128.419c.309-.4.526-.864.637-1.357.11-.494.11-1.005.001-1.499-.109-.493-.325-.957-.633-1.359-.308-.401-.7-.73-1.149-.963l.684-7.874-4.688-1.582-.81 11.133c-.343.779-.387 1.657-.125 2.467.262.809.813 1.495 1.547 1.927.734.431 1.601.579 2.437.414.836-.164 1.583-.629 2.098-1.306z" fill="#d4c2a8"/><path d="m248.379 189.634h-4.218l-2.008-16.265h6.229z" fill="#d4c2a8"/><path d="m241.145 188.429h8.14v5.12h-13.264c0-1.358.539-2.66 1.501-3.621.961-.96 2.264-1.499 3.623-1.499z" fill="#4b1979"/><path d="m238.8 178.842-4.098 1.006-5.835-15.315 6.049-1.485z" fill="#d4c2a8"/><path d="m231.545 179.251 7.903-1.944 1.225 4.972-12.88 3.167c-.325-1.318-.112-2.712.592-3.874.703-1.161 1.84-1.997 3.16-2.321z" fill="#4b1979"/><path d="m243.441 184.448c-.385.001-.757-.141-1.044-.399-.286-.257-.467-.612-.506-.995l-4.856-45.199-4.226 13.822 5.986 21.588c.103.37.065.765-.105 1.109-.171.344-.463.613-.82.756l-4.759 1.901c-.195.079-.405.116-.616.112-.211-.005-.419-.053-.611-.141-.192-.087-.364-.212-.506-.368s-.252-.339-.321-.538l-7.335-21.026c-.803-2.295-1.158-4.724-1.047-7.153l1.024-22.691 26.965 1.141-.42 56.14c-.005.391-.156.766-.423 1.051-.267.286-.632.461-1.022.493l-5.236.394c-.041.002-.082.003-.122.003z" fill="#4b1979"/><path d="m238.975 75.0086c5.008 0 9.068-4.0557 9.068-9.0586 0-5.003-4.06-9.0586-9.068-9.0586-5.007 0-9.067 4.0556-9.067 9.0586 0 5.0029 4.06 9.0586 9.067 9.0586z" fill="#d4c2a8"/><path d="m245.643 127.843c-2.388 0-5.353-.195-8.423-.397-4.194-.276-8.53-.561-11.768-.374-.437.044-.878-.026-1.281-.201-.402-.175-.753-.45-1.019-.8-3.337-4.268 1.809-20.915 2.03-21.621l4.188-18.6137.18.0405-.18-.0405c.923-4.094 3.866-7.1139 7.683-7.881 3.574-.717 7.031.7122 9.248 3.8265.117.1652.235.3348.352.5086 7.218 10.68 3.135 37.2136 2.862 38.9246.381.457 2.443 3.037 1.876 4.829-.23.729-.856 1.226-1.861 1.475-1.28.253-2.584.361-3.888.323z" fill="#a06ece"/><path d="m225.598 127.851c-.821 0-1.929-.303-3.423-.922-.642-.267-2.595-1.079-.223-21.787 1.165-10.1725 2.834-20.2738 2.85-20.3745l.016-.0974.09-.0406c.043-.0195 4.306-1.9713 5.047-4.4797.024-.0868.053-.171.086-.2526.204-.5576.616-1.0149 1.149-1.2766s1.147-.3075 1.714-.1279c.598.1429 1.119.5078 1.458 1.0207s.47 1.1353.366 1.7411c-.258 1.636-.754 3.2255-1.473 4.7179-2.006 4.1345-3.365 15.0956-3.378 15.2056-.077.936-1.897 23.115-2.248 24.798-.122.587-.347 1.307-1.009 1.656-.317.156-.668.232-1.021.221z" fill="#4b1979"/><path d="m235.504 127.001c-.166 0-.327-.055-.457-.157-2.668-2.025 1.649-26.574 4.208-35.0438.513-1.6966.969-3.1486 1.357-4.3174.707-2.0973 1.2-4.2605 1.473-6.4566.141-1.1898.447-1.8692.936-2.0776.34-.1449.739-.0465 1.189.2925 2.365-.1166 4.664.8483 6.793 1.9108l1.917.9553 2.151 38.0438c-.061 2.428-4.852 4.142-6.941 4.251-3.355.176-9.381.722-12.035 2.401-.174.121-.379.189-.591.197z" fill="#4b1979"/><path d="m223.522 119.863c-.032 0-.063 0-.096-.003l-4.344-.267c-.216-.014-.427-.072-.62-.171s-.362-.237-.499-.406c-.136-.168-.236-.363-.292-.572-.057-.209-.07-.427-.037-.641l1.966-13.012 3.7-18.2565c.091-.4497.276-.8753.542-1.2491.267-.3738.609-.6875 1.004-.9208.396-.2333.836-.381 1.292-.4335.456-.0524.918-.0085 1.357.1289.749.2388 1.388.7373 1.801 1.4054.414.6682.575 1.462.454 2.2382l-2.94 18.2934-1.741 12.521c-.054.372-.239.713-.523.96-.284.246-.648.383-1.024.385z" fill="#4b1979"/><path d="m238.363 105.621c.265-.431.621-.798 1.044-1.077.422-.278.901-.46 1.401-.534.501-.073 1.012-.036 1.496.109.485.144.932.394 1.31.73l7.123-3.437 3.147 3.815-10.127 4.713c-.608.597-1.413.95-2.264.993s-1.688-.227-2.353-.759c-.665-.533-1.111-1.29-1.255-2.129-.143-.839.027-1.702.478-2.424z" fill="#d4c2a8"/><path d="m248.258 109.313c-.351-.001-.691-.118-.967-.335-.275-.217-.47-.52-.552-.861l-1.034-4.297c-.078-.323-.052-.663.077-.969.129-.307.353-.564.64-.734l6.239-3.7312-3.19-11.6673c-.276-.9991-.149-2.0664.353-2.9735.501-.9071 1.339-1.5819 2.333-1.8798.993-.298 2.064-.1955 2.983.2855s1.613 1.3024 1.933 2.2881l3.522 10.742c.433 1.3094.436 2.7225.01 4.034-.427 1.3112-1.26 2.4532-2.381 3.2582l-9.052 6.543c-.266.193-.586.296-.914.297z" fill="#4b1979"/><path d="m180.848 0h-174.69022c-1.63255.00195212-3.19767.65073-4.35205 1.80402-1.154387 1.15329-1.80377602 2.71692-1.80573 4.34792v18.78036c.00195398 1.631.651343 3.1947 1.80573 4.3479 1.15438 1.1533 2.7195 1.8021 4.35205 1.8041h174.69022c1.632-.002 3.197-.6508 4.352-1.8041 1.154-1.1532 1.803-2.7169 1.805-4.3479v-18.78036c-.002-1.631-.651-3.19463-1.805-4.34792-1.155-1.15329-2.72-1.80206788-4.352-1.80402zm5.509 24.9323c-.002 1.4592-.583 2.858-1.616 3.8898s-2.433 1.6124-3.893 1.6145h-174.69022c-1.46056-.0021-2.86068-.5827-3.89344-1.6145-1.03277-1.0318-1.613928-2.4306-1.616076-3.8898v-18.78036c.002148-1.45917.583306-2.85796 1.616076-3.88975 1.03276-1.03179 2.43288-1.612395 3.89344-1.614541h174.69022c1.46.002146 2.86.582751 3.893 1.614541s1.614 2.43058 1.616 3.88975z" fill="#3f3d56"/><path d="m180.848 75.4435h-174.69022c-1.63255-.0019-3.19767-.6507-4.35205-1.804-1.154387-1.1533-1.80377602-2.7169-1.80573-4.3479v-18.78c.00195398-1.631.651343-3.1947 1.80573-4.348 1.15438-1.1532 2.7195-1.802 4.35205-1.804h174.69022c1.632.002 3.197.6508 4.352 1.804 1.154 1.1533 1.803 2.717 1.805 4.348v18.78c-.002 1.631-.651 3.1946-1.805 4.3479-1.155 1.1533-2.72 1.8021-4.352 1.804zm-174.69022-30.4362c-1.46071.0016-2.86111.5821-3.89398 1.614s-1.613875 2.4309-1.615536 3.8903v18.78c.001368 1.4595.582236 2.8588 1.615146 3.891 1.0329 1.0321 2.43347 1.6127 3.89437 1.6144h174.69022c1.46-.0016 2.861-.582 3.894-1.6139s1.614-2.431 1.615-3.8904v-18.7811c-.001-1.4594-.582-2.8584-1.615-3.8903s-2.433-1.6124-3.894-1.614z" fill="#ccc"/><path d="m180.848 119.803h-174.69022c-1.63255-.002-3.19767-.651-4.35205-1.804-1.154387-1.153-1.80377602-2.717-1.80573-4.348v-18.7798c.00195398-1.631.651343-3.1947 1.80573-4.3479 1.15438-1.1533 2.7195-1.8021 4.35205-1.8041h174.69022c1.632.002 3.197.6508 4.352 1.8041 1.154 1.1532 1.803 2.7169 1.805 4.3479v18.7798c-.002 1.631-.651 3.195-1.805 4.348-1.155 1.153-2.72 1.802-4.352 1.804zm-174.69022-30.4376c-1.46071.0017-2.86111.5821-3.89398 1.614s-1.613875 2.431-1.615536 3.8903v18.7803c.001563 1.459.582526 2.858 1.615406 3.89 1.03289 1.032 2.43334 1.613 3.89411 1.614h174.69022c1.46-.001 2.861-.582 3.894-1.614 1.033-1.031 1.614-2.431 1.615-3.89v-18.7788c-.001-1.4597-.582-2.8592-1.615-3.8914s-2.433-1.6128-3.894-1.6144z" fill="#ccc"/><path d="m29.7627 26.2497c-2.1198 0-4.1919-.628-5.9545-1.8045-1.7625-1.1766-3.1362-2.8489-3.9474-4.8055-.8112-1.9565-1.0235-4.1095-.6099-6.1866.4135-2.077 1.4343-3.98495 2.9332-5.48243 1.4989-1.49749 3.4086-2.51729 5.4877-2.93045 2.079-.41315 4.234-.20111 6.1924.60933 1.9585.81043 3.6323 2.18285 4.81 3.94371 1.1777 1.76084 1.8063 3.83104 1.8063 5.94884 0 2.8398-1.1292 5.5634-3.1392 7.5714-2.0099 2.0081-4.7361 3.1362-7.5786 3.1362z" fill="#a06ece"/><path d="m165.024 24.2843h-114.4067c-.6877 0-1.3472-.2729-1.8334-.7587-.4863-.4858-.7595-1.1446-.7595-1.8317 0-.687.2732-1.3459.7595-1.8317.4862-.4858 1.1457-.7587 1.8334-.7587h114.4067c.687 0 1.347.2729 1.833.7587s.759 1.1447.759 1.8317c0 .6871-.273 1.3459-.759 1.8317s-1.146.7587-1.833.7587z" fill="#ccc"/><path d="m127.75 13.2753h-77.1356c-.6877 0-1.3472-.2729-1.8335-.7587-.4862-.4858-.7594-1.1447-.7594-1.8317 0-.68702.2732-1.34591.7594-1.8317.4863-.4858 1.1458-.75872 1.8335-.75872h77.1356c.687 0 1.347.27292 1.833.75872.486.48579.76 1.14468.76 1.8317 0 .687-.274 1.3459-.76 1.8317s-1.146.7587-1.833.7587z" fill="#ccc"/><g fill="#e6e6e6"><path d="m29.7627 70.6091c-2.1198 0-4.1919-.628-5.9545-1.8046-1.7625-1.1765-3.1362-2.8488-3.9474-4.8054s-1.0235-4.1095-.6099-6.1866c.4135-2.0771 1.4343-3.985 2.9332-5.4825 1.4989-1.4974 3.4086-2.5172 5.4877-2.9304 2.079-.4132 4.234-.2011 6.1924.6093 1.9585.8105 3.6323 2.1829 4.81 3.9437 1.1777 1.7609 1.8063 3.8311 1.8063 5.9489 0 2.8398-1.1292 5.5633-3.1392 7.5714-2.0099 2.0081-4.7361 3.1362-7.5786 3.1362z"/><path d="m165.024 68.644h-114.4067c-.6877 0-1.3472-.2729-1.8334-.7587-.4863-.4858-.7595-1.1447-.7595-1.8317 0-.6871.2732-1.346.7595-1.8318.4862-.4857 1.1457-.7587 1.8334-.7587h114.4067c.687 0 1.347.273 1.833.7587.486.4858.759 1.1447.759 1.8318 0 .687-.273 1.3459-.759 1.8317s-1.146.7587-1.833.7587z"/><path d="m127.75 57.6349h-77.1356c-.6877 0-1.3472-.2729-1.8335-.7587-.4862-.4858-.7594-1.1447-.7594-1.8317s.2732-1.3459.7594-1.8317c.4863-.4858 1.1458-.7587 1.8335-.7587h77.1356c.687 0 1.347.2729 1.833.7587s.76 1.1447.76 1.8317-.274 1.3459-.76 1.8317-1.146.7587-1.833.7587z"/><path d="m29.7627 114.968c-2.1198 0-4.1919-.628-5.9545-1.804-1.7625-1.177-3.1362-2.849-3.9474-4.806-.8112-1.956-1.0235-4.109-.6099-6.186.4135-2.077 1.4343-3.9851 2.9332-5.4826s3.4086-2.5173 5.4877-2.9304c2.079-.4132 4.234-.2011 6.1924.6093 1.9585.8104 3.6323 2.1829 4.81 3.9437 1.1777 1.761 1.8063 3.831 1.8063 5.949 0 2.84-1.1292 5.563-3.1392 7.571-2.0099 2.008-4.7361 3.136-7.5786 3.136z"/><path d="m165.024 113.004h-114.4067c-.6877 0-1.3472-.273-1.8334-.759-.4863-.486-.7595-1.145-.7595-1.832s.2732-1.346.7595-1.832c.4862-.485 1.1457-.758 1.8334-.758h114.4067c.687 0 1.347.273 1.833.758.486.486.759 1.145.759 1.832s-.273 1.346-.759 1.832-1.146.759-1.833.759z"/><path d="m127.75 101.995h-77.1356c-.6877 0-1.3472-.273-1.8335-.759-.4862-.486-.7594-1.145-.7594-1.8316 0-.687.2732-1.3459.7594-1.8317.4863-.4858 1.1458-.7587 1.8335-.7587h77.1356c.687 0 1.347.2729 1.833.7587s.76 1.1447.76 1.8317c0 .6866-.274 1.3456-.76 1.8316s-1.146.759-1.833.759z"/></g><path d="m29.2153 19.3085c-.2662.0006-.5254-.0853-.7384-.2449l-.0133-.01-2.778-2.1229c-.1287-.0985-.2366-.2214-.3178-.3617-.0811-.1402-.1338-.295-.155-.4556-.0212-.1605-.0106-.3237.0313-.4802.0418-.1565.1142-.3032.2128-.4317s.2217-.2364.362-.3175c.1404-.081.2954-.1337.4561-.1549s.324-.0106.4807.0313c.1566.0418.3034.1141.4321.2126l1.7993 1.3787 4.2518-5.5419c.1991-.2594.4932-.4292.8176-.472s.6526.0448.9123.2437l-.0262.0368.0269-.0368c.2594.1992.4291.4931.4718.8172.0428.324-.0448.6518-.2436.9114l-5.0012 6.5156c-.1159.1499-.2647.2711-.435.3542s-.3574.126-.547.1253z" fill="#fff"/><path d="m275.631 194h-73.096c-.098 0-.192-.039-.261-.108s-.108-.163-.108-.261.039-.192.108-.261.163-.108.261-.108h73.096c.098 0 .192.039.261.108s.108.163.108.261-.039.192-.108.261-.163.108-.261.108z" fill="#ccc"/><path d="m242.309 68.3647s-1.104-6.0952-3.615-5.367c-2.51.7283-8.972 1.4734-8.984-1.3972-.012-2.8705 6.082-5.4077 9.675-5.0643 3.594.3434 9.703 1.394 9.367 6.7776-.269 3.3907-1.318 6.6736-3.065 9.593z" fill="#4b1979"/></svg>

<svg width="276" height="194" viewBox="0 0 276 194" fill="none" xmlns="http://www.w3.org/2000/svg">
<path d="M224.986 128.419C225.295 128.019 225.512 127.555 225.623 127.062C225.733 126.568 225.733 126.057 225.624 125.563C225.515 125.07 225.299 124.606 224.991 124.204C224.683 123.803 224.291 123.474 223.842 123.241L224.526 115.367L219.838 113.785L219.028 124.918C218.685 125.697 218.641 126.575 218.903 127.385C219.165 128.194 219.716 128.88 220.45 129.312C221.184 129.743 222.051 129.891 222.887 129.726C223.723 129.562 224.47 129.097 224.985 128.42L224.986 128.419Z" fill="#D4C2A8"/>
<path d="M248.379 189.634H244.161L242.153 173.369H248.382L248.379 189.634Z" fill="#D4C2A8"/>
<path d="M241.145 188.429H249.285V193.549H236.021C236.021 192.191 236.56 190.889 237.522 189.928C238.483 188.968 239.786 188.429 241.145 188.429Z" fill="#4B1979"/>
<path d="M238.8 178.842L234.702 179.848L228.867 164.533L234.916 163.048L238.8 178.842Z" fill="#D4C2A8"/>
<path d="M231.545 179.251L239.448 177.307L240.673 182.279L227.793 185.446C227.468 184.128 227.681 182.734 228.385 181.572C229.088 180.411 230.225 179.575 231.545 179.251Z" fill="#4B1979"/>
<path d="M243.441 184.448C243.056 184.449 242.684 184.307 242.397 184.049C242.111 183.792 241.93 183.437 241.891 183.054L237.035 137.855L232.809 151.677L238.795 173.265C238.898 173.635 238.86 174.03 238.69 174.374C238.519 174.718 238.227 174.987 237.87 175.13L233.111 177.031C232.916 177.11 232.706 177.147 232.495 177.143C232.284 177.138 232.076 177.09 231.884 177.002C231.692 176.915 231.52 176.79 231.378 176.634C231.236 176.478 231.126 176.295 231.057 176.096L223.722 155.07C222.919 152.775 222.564 150.346 222.675 147.917L223.699 125.226L250.664 126.367L250.244 182.507C250.239 182.898 250.088 183.273 249.821 183.558C249.554 183.844 249.189 184.019 248.799 184.051L243.563 184.445C243.522 184.447 243.481 184.448 243.441 184.448Z" fill="#4B1979"/>
<path d="M238.975 75.0086C243.983 75.0086 248.043 70.9529 248.043 65.95C248.043 60.947 243.983 56.8914 238.975 56.8914C233.968 56.8914 229.908 60.947 229.908 65.95C229.908 70.9529 233.968 75.0086 238.975 75.0086Z" fill="#D4C2A8"/>
<path d="M245.643 127.843C243.255 127.843 240.29 127.648 237.22 127.446C233.026 127.17 228.69 126.885 225.452 127.072C225.015 127.116 224.574 127.046 224.171 126.871C223.769 126.696 223.418 126.421 223.152 126.071C219.815 121.803 224.961 105.156 225.182 104.45L229.37 85.8363L229.55 85.8768L229.37 85.8363C230.293 81.7423 233.236 78.7224 237.053 77.9553C240.627 77.2383 244.084 78.6675 246.301 81.7818C246.418 81.947 246.536 82.1166 246.653 82.2904C253.871 92.9704 249.788 119.504 249.515 121.215C249.896 121.672 251.958 124.252 251.391 126.044C251.161 126.773 250.535 127.27 249.53 127.519C248.25 127.772 246.946 127.88 245.642 127.842L245.643 127.843Z" fill="#A06ECE"/>
<path d="M225.598 127.851C224.777 127.851 223.669 127.548 222.175 126.929C221.533 126.662 219.58 125.85 221.952 105.142C223.117 94.9695 224.786 84.8682 224.802 84.7675L224.818 84.6701L224.908 84.6295C224.951 84.61 229.214 82.6582 229.955 80.1498C229.979 80.063 230.008 79.9788 230.041 79.8972C230.245 79.3396 230.657 78.8823 231.19 78.6206C231.723 78.3589 232.337 78.3131 232.904 78.4927C233.502 78.6356 234.023 79.0005 234.362 79.5134C234.701 80.0263 234.832 80.6487 234.728 81.2545C234.47 82.8905 233.974 84.48 233.255 85.9724C231.249 90.1069 229.89 101.068 229.877 101.178C229.8 102.114 227.98 124.293 227.629 125.976C227.507 126.563 227.282 127.283 226.62 127.632C226.303 127.788 225.952 127.864 225.599 127.853L225.598 127.851Z" fill="#4B1979"/>
<path d="M235.504 127.001C235.338 127.001 235.177 126.946 235.047 126.844C232.379 124.819 236.696 100.27 239.255 91.8002C239.768 90.1036 240.224 88.6516 240.612 87.4828C241.319 85.3855 241.812 83.2223 242.085 81.0262C242.226 79.8364 242.532 79.157 243.021 78.9486C243.361 78.8037 243.76 78.9021 244.21 79.2411C246.575 79.1245 248.874 80.0894 251.003 81.1519L252.92 82.1072L255.071 120.151C255.01 122.579 250.219 124.293 248.13 124.402C244.775 124.578 238.749 125.124 236.095 126.803C235.921 126.924 235.716 126.992 235.504 127L235.504 127.001Z" fill="#4B1979"/>
<path d="M223.522 119.863C223.49 119.863 223.459 119.863 223.426 119.86L219.082 119.593C218.866 119.579 218.655 119.521 218.462 119.422C218.269 119.323 218.1 119.185 217.963 119.016C217.827 118.848 217.727 118.653 217.671 118.444C217.614 118.235 217.601 118.017 217.634 117.803L219.6 104.791L223.3 86.5345C223.391 86.0848 223.576 85.6592 223.842 85.2854C224.109 84.9116 224.451 84.5979 224.846 84.3646C225.242 84.1313 225.682 83.9836 226.138 83.9311C226.594 83.8787 227.056 83.9226 227.495 84.06C228.244 84.2988 228.883 84.7973 229.296 85.4654C229.71 86.1336 229.871 86.9274 229.75 87.7036L226.81 105.997L225.069 118.518C225.015 118.89 224.83 119.231 224.546 119.478C224.262 119.724 223.898 119.861 223.522 119.863H223.522Z" fill="#4B1979"/>
<path d="M238.363 105.621C238.628 105.19 238.984 104.823 239.407 104.544C239.829 104.266 240.308 104.084 240.808 104.01C241.309 103.937 241.82 103.974 242.304 104.119C242.789 104.263 243.236 104.513 243.614 104.849L250.737 101.412L253.884 105.227L243.757 109.94C243.149 110.537 242.344 110.89 241.493 110.933C240.642 110.976 239.805 110.706 239.14 110.174C238.475 109.641 238.029 108.884 237.885 108.045C237.742 107.206 237.912 106.343 238.363 105.621Z" fill="#D4C2A8"/>
<path d="M248.258 109.313C247.907 109.312 247.567 109.195 247.291 108.978C247.016 108.761 246.821 108.458 246.739 108.117L245.705 103.82C245.627 103.497 245.653 103.157 245.782 102.851C245.911 102.544 246.135 102.287 246.422 102.117L252.661 98.3858L249.471 86.7185C249.195 85.7194 249.322 84.6521 249.824 83.745C250.325 82.8379 251.163 82.1631 252.157 81.8652C253.15 81.5672 254.221 81.6697 255.14 82.1507C256.059 82.6317 256.753 83.4531 257.073 84.4388L260.595 95.1808C261.028 96.4902 261.031 97.9033 260.605 99.2148C260.178 100.526 259.345 101.668 258.224 102.473L249.172 109.016C248.906 109.209 248.586 109.312 248.258 109.313Z" fill="#4B1979"/>
<path d="M180.848 0H6.15778C4.52523 0.00195212 2.96011 0.65073 1.80573 1.80402C0.651343 2.95731 0.00195398 4.52094 0 6.15194V24.9323C0.00195398 26.5633 0.651343 28.127 1.80573 29.2802C2.96011 30.4335 4.52523 31.0823 6.15778 31.0843H180.848C182.48 31.0823 184.045 30.4335 185.2 29.2802C186.354 28.127 187.003 26.5633 187.005 24.9323V6.15194C187.003 4.52094 186.354 2.95731 185.2 1.80402C184.045 0.65073 182.48 0.00195212 180.848 0ZM186.357 24.9323C186.355 26.3915 185.774 27.7903 184.741 28.8221C183.708 29.8539 182.308 30.4345 180.848 30.4366H6.15778C4.69722 30.4345 3.2971 29.8539 2.26434 28.8221C1.23157 27.7903 0.650412 26.3915 0.648264 24.9323V6.15194C0.650412 4.69277 1.23157 3.29398 2.26434 2.26219C3.2971 1.2304 4.69722 0.649795 6.15778 0.647649H180.848C182.308 0.649795 183.708 1.2304 184.741 2.26219C185.774 3.29398 186.355 4.69277 186.357 6.15194V24.9323Z" fill="#3F3D56"/>
<path d="M180.848 75.4435H6.15778C4.52523 75.4416 2.96011 74.7928 1.80573 73.6395C0.651343 72.4862 0.00195398 70.9226 0 69.2916V50.5116C0.00195398 48.8806 0.651343 47.3169 1.80573 46.1636C2.96011 45.0104 4.52523 44.3616 6.15778 44.3596H180.848C182.48 44.3616 184.045 45.0104 185.2 46.1636C186.354 47.3169 187.003 48.8806 187.005 50.5116V69.2916C187.003 70.9226 186.354 72.4862 185.2 73.6395C184.045 74.7928 182.48 75.4416 180.848 75.4435ZM6.15778 45.0073C4.69707 45.0089 3.29667 45.5894 2.2638 46.6213C1.23093 47.6532 0.649925 49.0522 0.648264 50.5116V69.2916C0.649632 70.7511 1.2305 72.1504 2.26341 73.1826C3.29631 74.2147 4.69688 74.7953 6.15778 74.797H180.848C182.308 74.7954 183.709 74.215 184.742 73.1831C185.775 72.1512 186.356 70.7521 186.357 69.2927V50.5116C186.356 49.0522 185.775 47.6532 184.742 46.6213C183.709 45.5894 182.309 45.0089 180.848 45.0073H6.15778Z" fill="#CCCCCC"/>
<path d="M180.848 119.803H6.15778C4.52523 119.801 2.96011 119.152 1.80573 117.999C0.651343 116.846 0.00195398 115.282 0 113.651V94.8712C0.00195398 93.2402 0.651343 91.6765 1.80573 90.5233C2.96011 89.37 4.52523 88.7212 6.15778 88.7192H180.848C182.48 88.7212 184.045 89.37 185.2 90.5233C186.354 91.6765 187.003 93.2402 187.005 94.8712V113.651C187.003 115.282 186.354 116.846 185.2 117.999C184.045 119.152 182.48 119.801 180.848 119.803ZM6.15778 89.3654C4.69707 89.3671 3.29667 89.9475 2.2638 90.9794C1.23093 92.0113 0.649925 93.4104 0.648264 94.8697V113.65C0.649827 115.109 1.23079 116.508 2.26367 117.54C3.29656 118.572 4.69701 119.153 6.15778 119.154H180.848C182.308 119.153 183.709 118.572 184.742 117.54C185.775 116.509 186.356 115.109 186.357 113.65V94.8712C186.356 93.4115 185.775 92.012 184.742 90.9798C183.709 89.9476 182.309 89.367 180.848 89.3654H6.15778Z" fill="#CCCCCC"/>
<path d="M29.7627 26.2497C27.6429 26.2497 25.5708 25.6217 23.8082 24.4452C22.0457 23.2686 20.672 21.5963 19.8608 19.6397C19.0496 17.6832 18.8373 15.5302 19.2509 13.4531C19.6644 11.3761 20.6852 9.46815 22.1841 7.97067C23.683 6.47318 25.5927 5.45338 27.6718 5.04022C29.7508 4.62707 31.9058 4.83911 33.8642 5.64955C35.8227 6.45998 37.4965 7.8324 38.6742 9.59326C39.8519 11.3541 40.4805 13.4243 40.4805 15.5421C40.4805 18.3819 39.3513 21.1055 37.3413 23.1135C35.3314 25.1216 32.6052 26.2497 29.7627 26.2497Z" fill="#A06ECE"/>
<path d="M165.024 24.2843H50.6173C49.9296 24.2843 49.2701 24.0114 48.7839 23.5256C48.2976 23.0398 48.0244 22.381 48.0244 21.6939C48.0244 21.0069 48.2976 20.348 48.7839 19.8622C49.2701 19.3764 49.9296 19.1035 50.6173 19.1035H165.024C165.711 19.1035 166.371 19.3764 166.857 19.8622C167.343 20.348 167.616 21.0069 167.616 21.6939C167.616 22.381 167.343 23.0398 166.857 23.5256C166.371 24.0114 165.711 24.2843 165.024 24.2843Z" fill="#CCCCCC"/>
<path d="M127.75 13.2753H50.6144C49.9267 13.2753 49.2672 13.0024 48.7809 12.5166C48.2947 12.0308 48.0215 11.3719 48.0215 10.6849C48.0215 9.99788 48.2947 9.33899 48.7809 8.8532C49.2672 8.3674 49.9267 8.09448 50.6144 8.09448H127.75C128.437 8.09448 129.097 8.3674 129.583 8.8532C130.069 9.33899 130.343 9.99788 130.343 10.6849C130.343 11.3719 130.069 12.0308 129.583 12.5166C129.097 13.0024 128.437 13.2753 127.75 13.2753Z" fill="#CCCCCC"/>
<path d="M29.7627 70.6091C27.6429 70.6091 25.5708 69.9811 23.8082 68.8045C22.0457 67.628 20.672 65.9557 19.8608 63.9991C19.0496 62.0425 18.8373 59.8896 19.2509 57.8125C19.6644 55.7354 20.6852 53.8275 22.1841 52.33C23.683 50.8326 25.5927 49.8128 27.6718 49.3996C29.7508 48.9864 31.9058 49.1985 33.8642 50.0089C35.8227 50.8194 37.4965 52.1918 38.6742 53.9526C39.8519 55.7135 40.4805 57.7837 40.4805 59.9015C40.4805 62.7413 39.3513 65.4648 37.3413 67.4729C35.3314 69.481 32.6052 70.6091 29.7627 70.6091Z" fill="#E6E6E6"/>
<path d="M165.024 68.644H50.6173C49.9296 68.644 49.2701 68.3711 48.7839 67.8853C48.2976 67.3995 48.0244 66.7406 48.0244 66.0536C48.0244 65.3665 48.2976 64.7076 48.7839 64.2218C49.2701 63.7361 49.9296 63.4631 50.6173 63.4631H165.024C165.711 63.4631 166.371 63.7361 166.857 64.2218C167.343 64.7076 167.616 65.3665 167.616 66.0536C167.616 66.7406 167.343 67.3995 166.857 67.8853C166.371 68.3711 165.711 68.644 165.024 68.644Z" fill="#E6E6E6"/>
<path d="M127.75 57.6349H50.6144C49.9267 57.6349 49.2672 57.362 48.7809 56.8762C48.2947 56.3904 48.0215 55.7315 48.0215 55.0445C48.0215 54.3575 48.2947 53.6986 48.7809 53.2128C49.2672 52.727 49.9267 52.4541 50.6144 52.4541H127.75C128.437 52.4541 129.097 52.727 129.583 53.2128C130.069 53.6986 130.343 54.3575 130.343 55.0445C130.343 55.7315 130.069 56.3904 129.583 56.8762C129.097 57.362 128.437 57.6349 127.75 57.6349Z" fill="#E6E6E6"/>
<path d="M29.7627 114.968C27.6429 114.968 25.5708 114.34 23.8082 113.164C22.0457 111.987 20.672 110.315 19.8608 108.358C19.0496 106.402 18.8373 104.249 19.2509 102.172C19.6644 100.095 20.6852 98.1869 22.1841 96.6894C23.683 95.1919 25.5927 94.1721 27.6718 93.759C29.7508 93.3458 31.9058 93.5579 33.8642 94.3683C35.8227 95.1787 37.4965 96.5512 38.6742 98.312C39.8519 100.073 40.4805 102.143 40.4805 104.261C40.4805 107.101 39.3513 109.824 37.3413 111.832C35.3314 113.84 32.6052 114.968 29.7627 114.968Z" fill="#E6E6E6"/>
<path d="M165.024 113.004H50.6173C49.9296 113.004 49.2701 112.731 48.7839 112.245C48.2976 111.759 48.0244 111.1 48.0244 110.413C48.0244 109.726 48.2976 109.067 48.7839 108.581C49.2701 108.096 49.9296 107.823 50.6173 107.823H165.024C165.711 107.823 166.371 108.096 166.857 108.581C167.343 109.067 167.616 109.726 167.616 110.413C167.616 111.1 167.343 111.759 166.857 112.245C166.371 112.731 165.711 113.004 165.024 113.004Z" fill="#E6E6E6"/>
<path d="M127.75 101.995H50.6144C49.9267 101.995 49.2672 101.722 48.7809 101.236C48.2947 100.75 48.0215 100.091 48.0215 99.4044C48.0215 98.7174 48.2947 98.0585 48.7809 97.5727C49.2672 97.0869 49.9267 96.814 50.6144 96.814H127.75C128.437 96.814 129.097 97.0869 129.583 97.5727C130.069 98.0585 130.343 98.7174 130.343 99.4044C130.343 100.091 130.069 100.75 129.583 101.236C129.097 101.722 128.437 101.995 127.75 101.995Z" fill="#E6E6E6"/>
<path d="M29.2153 19.3085C28.9491 19.3091 28.6899 19.2232 28.4769 19.0636L28.4636 19.0536L25.6856 16.9307C25.5569 16.8322 25.449 16.7093 25.3678 16.569C25.2867 16.4288 25.234 16.274 25.2128 16.1134C25.1916 15.9529 25.2022 15.7897 25.2441 15.6332C25.2859 15.4767 25.3583 15.33 25.4569 15.2015C25.5555 15.073 25.6786 14.9651 25.8189 14.884C25.9593 14.803 26.1143 14.7503 26.275 14.7291C26.4357 14.7079 26.599 14.7185 26.7557 14.7604C26.9123 14.8022 27.0591 14.8745 27.1878 14.973L28.9871 16.3517L33.2389 10.8098C33.438 10.5504 33.7321 10.3806 34.0565 10.3378C34.3809 10.295 34.7091 10.3826 34.9688 10.5815L34.9426 10.6183L34.9695 10.5815C35.2289 10.7807 35.3986 11.0746 35.4413 11.3987C35.4841 11.7227 35.3965 12.0505 35.1977 12.3101L30.1965 18.8257C30.0806 18.9756 29.9318 19.0968 29.7615 19.1799C29.5912 19.263 29.4041 19.3059 29.2145 19.3052L29.2153 19.3085Z" fill="white"/>
<path d="M275.631 194H202.535C202.437 194 202.343 193.961 202.274 193.892C202.205 193.823 202.166 193.729 202.166 193.631C202.166 193.533 202.205 193.439 202.274 193.37C202.343 193.301 202.437 193.262 202.535 193.262H275.631C275.729 193.262 275.823 193.301 275.892 193.37C275.961 193.439 276 193.533 276 193.631C276 193.729 275.961 193.823 275.892 193.892C275.823 193.961 275.729 194 275.631 194Z" fill="#CCCCCC"/>
<path d="M242.309 68.3647C242.309 68.3647 241.205 62.2695 238.694 62.9977C236.184 63.726 229.722 64.4711 229.71 61.6005C229.698 58.73 235.792 56.1928 239.385 56.5362C242.979 56.8796 249.088 57.9302 248.752 63.3138C248.483 66.7045 247.434 69.9874 245.687 72.9068L242.309 68.3647Z" fill="#4B1979"/>
</svg>
